X:1
T: A Double Duet
N:
C:Tune is "Minuet" by Handel
S:
A:
O:
R:
M:3/4
K:Am
I:speed 150
%W: A1
% voice 1 (1 lines, 31 notes)
K:Am
M:3/4
L:1/16
e4 A4 ^G4 |A2 c2 B8 |c4 d2 c2 B2 A2 |^G4 ^F2 G2 E4 |e4 d2 c2 B2 A2 |d4 c2 B2 A2 ^G2 |A2 B2 c4 B2 A2 |A12 |
%W: A2
% voice 1 (1 lines, 31 notes)
e4 A4 ^G4 |A2 c2 B8 |c4 d2 c2 B2 A2 |^G4 ^F2 G2 E4 |e4 d2 c2 B2 A2 |d4 c2 B2 A2 ^G2 |A2 B2 c4 B2 A2 |A12 |
%W: B1
% voice 1 (1 lines, 29 notes)
G4 c2 B2 c4 |G4 d2 c2 d4 |G4 f4 e2 f2 |d12 |e2 f2 d2 e2 c2 d2 |B2 c2 A2 B2 G4 |F2 E2 D6 C2 |C12 |
%W: B2
% voice 1 (1 lines, 30 notes)
c2 d2 e4 ^G4 |A2 c2 B8 |c4 d2 c2 B2 A2 |^G4 ^F2 G2 E4 |E4 A2 ^G2 A4 |D4 A2 ^G2 A4 |c4 d2 c2 B2 c2 |A12 ||
